!!!OTL: KENNST DU DAS LAND WO DIE ZITRONEN BLUEHN
!!!ARE: Europa, Mitteleuropa, Deutschland
!!!SCT: B0259A
!!!YEM: Copyright 1995, estate of Helmut Schaffrath.
**kern
*ICvox
*Ivox
*M4/4
*k[b-e-a-]
*E-:
{8g
8g
8a-
=1
4.b-
8b-
8.ee-
16dd
8cc
8b-
=2
4b-
4a-
8r}
{8dd
8dd
8ee-
=3
4.ff
8dd
8b-
8cc
8f
8a-
=4
4a-
4g
8r}
{8ee-
8ee-
8dd
=5
4.cc
8cc
8cc
8bn
8cc
8dd
=6
4cc
4b-
8r}
{8b-
8dd
8b-
=7
4.ee-
8cc
8an
8f
8g
8a-
=8
2b-
8r}
{8a-
8a-
8b-
=9
2g
4r
4e-
=10
2cc
4r
4a-
=11
2dd
8r}
{8b-
8cc
8dd
=12
2ee-
8ee-
8ee-
8dd
8cc
=13
4cc
2b-
4d
=14
2e-
8r}
==
!!!AGN: Stimmungs - Lied, Sehnsucht
!!!ONB: ESAC (Essen Associative Code) Database: BOEHME
!!!AMT: simple quadruple
!!!AIN: vox
!!!EED: Helmut Schaffrath
!!!EEV: 1.0
*-
